X:1
T:Meditation
T:Meditation
T:Jules Massenet
C:Jules Massenet
L:1/8
Q:1/4=92
M:4/4
K:D
V:1 treble nm="长笛" snm="Fl."
V:1
"^Andante reflgloso" z4 |"^dolce avec svivate" ((f4 f)d) (3(Adf) | (b4 c'2 d'2) | %3
 (d3 e) (5:4:5(f/g/f/e/f/ aA) | B6 (cd) |!<(! fe !tenuto!g4 (^de!<)! | %6
!<(! !tenuto!f)(!tenuto!g!tenuto!a!<)!b) (b2 B2) |!p! c4 (d2 e/d/c/d/) |!<(! e4!<)!!f!"^rall" =f4 | %9
!pp!"^a tempo" ((^f4 f)d) (3(Adf) | (b4 c'2 d'2) | ((f4 f>)d)!<(! (A/d/f/!<)!a/) | %12
"_piu"!f! =c'4"_cresc." (!tenuto!d'2 !tenuto!e'2) |!f! (f'4 f')(^d' (3bf^d) | %14
 (3:2:2a2 (g (3eBG) (3:2:2f2 e (3BGE |!p! (3:2:2d2 (A (3FGA) (B2 !tenuto!c!tenuto!d) | %16
!f! e4"_expressif" (!tenuto!f2 !tenuto!g2) | !tenuto!e2 (!tenuto!f2 !tenuto!B2 !tenuto!e2) | %18
 (d4!p!"^rall" c4) |"^a tempo" d8 ||"^animando"!mf! ((=c4 c)!<(!G)(A!<)!E) | %21
!>(! (G2!>)! F4)!<(! (3(^A^c!<)!e) |!f!"_piu" ((e4 e)B)!<(!(c!<)!G) | %23
"^poco a poco appassionato"!>(! (B2!>)! A4)!<(! (3(ce!<)!g) | %24
!f! (g3 a) (!tenuto!b!tenuto!f)(!tenuto!d!tenuto!B) | %25
 (e>f) (5:4:5(e/^d/e/f/g/) (!tenuto!g!tenuto!e)!tenuto!=c!tenuto!G |!p! _B4 (A2 G2) | %27
 a2 (g=f) e2 (d=c) |"_cresc." d'3 (=c' a3) (c' | e'3) (d' =c'2) ac' | %30
!ff!"^poco piu appassionato" =f'3 e' !tenuto!g'!tenuto!f'!tenuto!=c'!tenuto!_a | %31
 !tenuto!=f!tenuto!e!tenuto!g(!tenuto!f f)!tenuto!=c!tenuto!_A!tenuto!=F | (=F7/4E/4) (E2 E) F2 F | %33
 (=F7/4E/4) (E2 E) !tenuto!F2 !tenuto!F | (=F7/4E/4) (E2 E) !tenuto!G2 !tenuto!_B | %35
 (_B>G) (E/G/)B/c/ !tenuto!e!tenuto!=f!tenuto!^f!tenuto!g | %36
 (!tenuto!g!tenuto!f)(!tenuto!=f!tenuto!e) !tenuto!g!tenuto!a!tenuto!^a!tenuto!b | %37
!p! (b3"_dim." (g g))"^rall" (e2 c) |!pp!"^a tempo" ((f4 f)d) (3(Adf) | b4 c'2 d'2 | %40
 (d3 e) (5:4:5(f/g/f/e/f/ aA) | B6 (cd) |!<(! (fe) g4!<)! (^de | %43
!<(! !tenuto!f)(!tenuto!g!tenuto!a!tenuto!b)!<)! (b2 B2) |!p! c4 (d2 e/d/c/d/) | %45
!<(! e4!<)!!f! =f4 |!p!"^a tempo" ((^f4 f)d) (3(Adf) | (b4!<(! c'2!<)! d'2) | %48
!f!"_piu" ((f4 f>)d)!<(!!<(! (A/d/f/a/!<)!!<)! |!f! =c'4) !tenuto!d'2 !tenuto!e'2 | %50
!ff! (f'4 (3:2:2f'2) (^d' (3bf^d) | (3:2:2a2 (g (3eBG) (3:2:2f2 (e (3BGE) | %52
 (3:2:2d2 (A (3FGA)!<(! (B2 cd)!<)! |!f! e4"_expressif" (!tenuto!f2 !tenuto!g2) | %54
 !tenuto!e2 (!tenuto!f2 !tenuto!B2 !tenuto!e2) |!pp! (d4"^rall" c4) | %56
"^a tempo" (d4 d>)(F!<(! A/d/f/a/)!<)! |"_cresc." b6 c'2 |!f! (f'3 d') (afdA) | %59
!p!!<(! (G2 _B4)!<)! (C2 | C)!p!(3(C/D/E/) D4 !tenuto!F2 | %61
 !tenuto!A2 !tenuto!d2 !tenuto!f2 !tenuto!a2 || (a'8 | a'4)!f!!<(! D4!<)! | (E3 F) (F4 | %65
!p! F4) E4 | (D6 (3CDE) |"^calmato" (D6 (3CDE) | D4 z2 A2 |!ppp! !fermata!d8 |] %70

